X:216
T:Tam Lin
M:C
L:1/8
K:D Minor
D2|A,DFD A,DFD|B,DFD B,DFD|CEGE CEGE|FAGE FEDC|!
A,DFD A,DFD|B,DFD B,DFD|CEGE CEGE|FDEC D2:|!
A2|d^cdA FDD2|d^cdA FDD2|cEEE cEdE|cEEE A=BcA|!
d^cdA FDD2|d^cdA FDD2|B,DFD CEGE|FDEC D2:|!
